X:602
T:Farewell to Ireland
R:reel
D:Noel Hill: The Irish Concertina
Z:id:hn-reel-602
M:C|
K:D
D2FD ADFD|Addc def2|D2FD ADFA|(3Bcd AF EDB,C|
D2FD ADFD|Addc defg|~a3f gfef|1 dBAF GFEF:|2 dBAF Egfe||
|:~d3B A2FA|~A2FA DAFA|dedB A2FA|(3Bcd AF GFEF|
d2Ad BGdB|A2FA ABde|1 fdde dcBA|GFED CEA,e:|2 fdde d2 (3ABc|dBAF GFEF||
